X:1
T:Title
%%score { 1 | 2 }
L:1/8
M:4/4
K:Ab
V:1 treble nm="Grand Piano"
V:2 bass 
V:1
 z4 z2[Q:1/4=100] [CE]2 | [Ec]3 [Ec] [DB][CA][A,C][DF] | [CE]6 [EA]2 | [EG]3 [EA] BE F>E | %4
[M:3/4] c6 |[M:1/4] E2 |[M:4/4] c3 c ee[Ed][Ec] | [FB]4 [DF]2 [FA]2 | E3 A BE c>B |[M:3/4] [CA]6 | %10
[M:1/4] A2 |[M:4/4] G3 A BE d>d | c6 c2 | B3 [Ge] [Ae][A=d][Ac][Ad] |[M:3/4] [Ge]6 |[M:1/4] d2 | %16
[M:4/4] c3 c ee[Ed][Ec] | [FB]4 [DF]2 [FA]2 |[M:35/32] E3 ABEc-(3:2:4c3/2-c/4B3/4-B/8 | %19
[M:3/4] [CA]6 |] %20
V:2
 z4 z2 [A,,A,]2 | [A,,A,]3 [A,,A,] [A,,A,][A,,E,][A,,E,][A,,A,] | [A,,A,]6 [C,A,]2 | %3
 [B,,B,]3 [C,A,] [E,G,E][E,G,D] [E,A,D]>[E,A,C] |[M:3/4][K:treble] [A,E]6 |[M:1/4] [A,C]2 | %6
[M:4/4] [A,E]3 [A,E] [A,CA][K:bass][A,,CA][B,,G,][C,A,] | [D,A,]6 [=D,_C]2 | %8
 [E,C]3 [E,CE] [E,G,E][E,G,] [E,A,E]>[E,G,D] |[M:3/4] [A,,A,]6 |[M:1/4] [A,CE]2 | %11
[M:4/4] [E,B,E]3 [E,CE] [E,DE][E,D] [E,B,E]>[E,B,E] | [A,E]6 [A,E]2 | %13
 [E,G,E]3 [E,B,] [B,,B,][B,,B,][B,,B,][B,,B,] |[M:3/4] [E,B,]6 |[M:1/4] [E,B,E]2 | %16
[M:4/4][K:treble] [A,E]3 [A,E] [A,CA][K:bass][A,,CA][B,,B,][C,A,] | [D,A,]6 [=D,_C]2 | %18
[M:35/32] [E,C]3 [E,CE][E,G,E][E,G,][E,A,E]-(3:2:4[E,A,E]3/2-[E,A,E]/4[E,G,D]3/4-[E,G,D]/8 | %19
[M:3/4] [A,,A,]6 |] %20

